optimized/24/outline/score.svg

<svg viewBox="0 0 24 24" xmlns="http://www.w3.org/2000/svg" fill="currentColor" data-slot="icon">
  <g clip-path="url(#clip0_2117_12146)">
    <path d="M11.588 2L11.3048 2.11609L11.1545 2.17099L11.0959 2.20503C10.9983 2.26171 10.9053 2.33107 10.8202 2.41432L10.7475 2.47063L10.7182 2.49873C10.5785 2.6327 10.4676 2.78604 10.384 2.94622L10.3794 2.95503L8.35596 7.08505C8.31707 7.16057 8.24126 7.21321 8.15362 7.22222L8.13792 7.22383L3.53524 7.88858L3.52613 7.88995C2.86448 7.99362 2.31421 8.45461 2.09737 9.08889C1.87178 9.73874 2.04602 10.4568 2.53878 10.9328L5.86892 14.1463C5.92714 14.2042 5.95349 14.285 5.94173 14.3643L5.12179 18.8769L5.1195 18.8901C4.96179 19.8532 5.60429 20.76 6.55782 20.9396L6.56829 20.9416L6.57881 20.9433C6.96272 21.0046 7.35408 20.9431 7.69898 20.7707L7.71068 20.7647L11.7909 18.6365H11.9292C11.9736 18.6388 12.0126 18.6502 12.0449 18.6673L12.0507 18.6704L16.135 20.7912C16.733 21.1083 17.4627 21.0628 18.0163 20.6647C18.5805 20.272 18.8676 19.5864 18.7447 18.9061L17.9254 14.3922C17.9141 14.3173 17.9392 14.2413 17.9932 14.1879L21.4382 10.9417L21.4398 10.9402C21.9409 10.4709 22.1267 9.7542 21.9119 9.09966L21.9073 9.08596C21.6838 8.44566 21.121 7.98414 20.4502 7.88845L15.87 7.22698L15.868 7.22666C15.7832 7.21306 15.7132 7.15976 15.6783 7.08876L15.6763 7.08479L13.6283 2.97749L13.6232 2.96736C13.3429 2.42554 12.8087 2.06622 12.2068 2.00406L12.1675 2H11.588ZM11.8907 3.54054H12.0756C12.1545 3.55655 12.2196 3.60593 12.2553 3.67247L14.2979 7.76901L14.2991 7.7713C14.5596 8.29942 15.0622 8.66208 15.6383 8.74995L15.6444 8.75085L20.2314 9.41334L20.2331 9.41358C20.3346 9.42802 20.4178 9.49619 20.4524 9.58725C20.4759 9.66719 20.4532 9.75499 20.3888 9.81518L20.3863 9.81747L16.9345 13.0702L16.9279 13.0765C16.5061 13.4834 16.3124 14.0719 16.4085 14.6491L16.4104 14.6602L17.2308 19.1804C17.2456 19.2629 17.2113 19.3495 17.137 19.4006L17.1285 19.4064L17.1202 19.4125C17.0448 19.4674 16.9411 19.4757 16.8544 19.4294L16.8466 19.4253L12.7647 17.3058L12.7613 17.304C12.5121 17.1726 12.2393 17.104 11.9651 17.0962L11.9542 17.0959H11.6365L11.5805 17.1042C11.4116 17.1293 11.2423 17.183 11.0835 17.2684L7.0075 19.3945C6.95254 19.421 6.89176 19.4309 6.83207 19.4235C6.70031 19.3934 6.61874 19.2695 6.637 19.1438L7.45682 14.6319L7.45894 14.6196C7.55444 14.0411 7.36155 13.4536 6.94368 13.044L6.93936 13.0398L3.60685 9.82402C3.54291 9.76227 3.5231 9.67326 3.55067 9.59432L3.55275 9.58829C3.58365 9.49735 3.66265 9.42902 3.76087 9.41247L8.32846 8.75279C8.93033 8.6849 9.45895 8.3177 9.73153 7.77496L9.73491 7.76814L11.7503 3.65438C11.756 3.64419 11.7617 3.63563 11.7671 3.62854L11.8571 3.55886L11.8637 3.55162L11.8907 3.54054Z"/>
  </g>
  <defs>
    <clipPath id="clip0_2117_12146">
      <rect width="24" height="24"/>
    </clipPath>
  </defs>
</svg>

<svg xmlns="http://www.w3.org/2000/svg" viewBox="0 0 24 24" fill="currentColor" data-slot="icon">
  <g clip-path="url(#a)">
    <path d="m11.588 2-.283.116-.15.055-.06.034c-.097.057-.19.126-.275.21l-.072.056-.03.028c-.14.134-.25.287-.334.447l-.005.009-2.023 4.13a.257.257 0 0 1-.202.137l-.016.002-4.603.665h-.009a1.805 1.805 0 0 0-1.429 1.2 1.76 1.76 0 0 0 .442 1.844l3.33 3.213a.254.254 0 0 1 .073.218l-.82 4.513-.002.013a1.792 1.792 0 0 0 1.438 2.05l.01.002.01.001c.385.062.776 0 1.121-.172l.012-.006 4.08-2.128h.138a.277.277 0 0 1 .116.03l.006.003 4.084 2.121a1.788 1.788 0 0 0 1.881-.126 1.761 1.761 0 0 0 .729-1.759l-.82-4.514a.238.238 0 0 1 .068-.204l3.445-3.246.002-.002c.5-.47.687-1.186.472-1.84l-.005-.014a1.815 1.815 0 0 0-1.457-1.198l-4.58-.661h-.002a.256.256 0 0 1-.19-.138l-.002-.004-2.048-4.108-.005-.01a1.802 1.802 0 0 0-1.416-.963L12.167 2h-.579Zm.303 1.54h.185a.262.262 0 0 1 .18.132l2.042 4.097.001.002c.26.528.763.891 1.34.979h.005l4.587.663h.002a.276.276 0 0 1 .22.174c.023.08 0 .168-.064.228l-.003.002-3.451 3.253-.007.006a1.78 1.78 0 0 0-.52 1.573l.002.011.82 4.52a.22.22 0 0 1-.093.22l-.009.006-.008.007a.252.252 0 0 1-.266.016l-.007-.004-4.082-2.12-.004-.001c-.249-.131-.522-.2-.796-.208h-.329l-.055.008a1.522 1.522 0 0 0-.497.164l-4.076 2.127a.314.314 0 0 1-.176.029.251.251 0 0 1-.195-.28l.82-4.512.002-.012a1.796 1.796 0 0 0-.515-1.576l-.005-.004-3.332-3.216a.218.218 0 0 1-.056-.23l.002-.006c.03-.09.11-.159.208-.176l4.567-.66a1.795 1.795 0 0 0 1.404-.977l.003-.007 2.015-4.114a.22.22 0 0 1 .017-.025l.09-.07.007-.007.027-.011Z"/>
  </g>
  <defs>
    <clipPath id="a">
      <rect width="24" height="24"/>
    </clipPath>
  </defs>
</svg>
